modules/themify-icons/icons/split-h.svg

<?xml version="1.0" encoding="utf-8"?>
<!-- Generated by IcoMoon.io -->
<!DOCTYPE svg PUBLIC "-//W3C//DTD SVG 1.1//EN" "http://www.w3.org/Graphics/SVG/1.1/DTD/svg11.dtd">
<svg version="1.1" xmlns="http://www.w3.org/2000/svg" xmlns:xlink="http://www.w3.org/1999/xlink" width="17" height="17" viewBox="0 0 17 17">
<g>
</g>
	<path d="M2.207 8h3.772v1h-3.772l1.646 1.646-0.707 0.707-2.853-2.853 2.854-2.854 0.707 0.707-1.647 1.647zM13.854 5.646l-0.707 0.707 1.646 1.647h-3.772v1h3.772l-1.646 1.646 0.707 0.707 2.853-2.853-2.853-2.854zM8 17h1v-17h-1v17z" fill="#000000" />
</svg>

<svg xmlns="http://www.w3.org/2000/svg" width="17" height="17" viewBox="0 0 17 17"><path d="M2.207 8h3.772v1H2.207l1.646 1.646-.707.707L.293 8.5l2.854-2.854.707.707L2.207 8zm11.647-2.354l-.707.707L14.793 8h-3.772v1h3.772l-1.646 1.646.707.707L16.707 8.5l-2.853-2.854zM8 17h1V0H8v17z"/></svg>
